Catalina-light/actions/16/document-export-symbolic.svg

<?xml version="1.0" encoding="UTF-8" standalone="no"?>
<svg
   xmlns:dc="http://purl.org/dc/elements/1.1/"
   xmlns:cc="http://creativecommons.org/ns#"
   xmlns:rdf="http://www.w3.org/1999/02/22-rdf-syntax-ns#"
   xmlns:svg="http://www.w3.org/2000/svg"
   xmlns="http://www.w3.org/2000/svg"
   xmlns:sodipodi="http://sodipodi.sourceforge.net/DTD/sodipodi-0.dtd"
   xmlns:inkscape="http://www.inkscape.org/namespaces/inkscape"
   viewBox="0 0 16 16"
   id="svg3371"
   version="1.1"
   inkscape:version="0.91 r13725"
   sodipodi:docname="document-export-symbolic.svg">
  <metadata
     id="metadata3379">
    <rdf:RDF>
      <cc:Work
         rdf:about="">
        <dc:format>image/svg+xml</dc:format>
        <dc:type
           rdf:resource="http://purl.org/dc/dcmitype/StillImage" />
      </cc:Work>
    </rdf:RDF>
  </metadata>
  <sodipodi:namedview
     pagecolor="#ffffff"
     bordercolor="#666666"
     borderopacity="1"
     objecttolerance="10"
     gridtolerance="10"
     guidetolerance="10"
     inkscape:pageopacity="0"
     inkscape:pageshadow="2"
     inkscape:window-width="640"
     inkscape:window-height="480"
     id="namedview3377"
     showgrid="false"
     inkscape:zoom="39.8125"
     inkscape:cx="3.0769231"
     inkscape:cy="8"
     inkscape:current-layer="svg3371" />
  <defs
     id="defs3051">
    <style
       type="text/css"
       id="current-color-scheme">
      .ColorScheme-Text {
        color:#bebebe;
      }
      </style>
  </defs>
  <path
     style="color:#bebebe;fill:currentColor;fill-opacity:1;stroke:none"
     class="ColorScheme-Text"
     d="m 6.6666069,2.0000002 c 0.2674852,0 0.5342963,0.103509 0.7385037,0.3105369 L 12.697,7.1824484 c 0.220591,0.2242601 0.31908,0.5241753 0.300873,0.8173561 0.01819,0.293696 -0.08019,0.5916096 -0.300873,0.8158913 L 7.4051106,13.689073 c -0.4084149,0.41457 -1.0700327,0.41457 -1.4784468,0 -0.4084155,-0.414563 -0.4084155,-1.086855 0,-1.501417 L 10.47573,7.9998045 5.9266638,3.8104882 c -0.4084155,-0.4145719 -0.4084155,-1.0858748 0,-1.4999511 C 6.1308706,2.1035092 6.399121,2.0000002 6.6666069,2.0000002 Z M 4.7202957,6.2581624 c 0.9500185,0 1.7202977,0.7820148 1.7202977,1.7475005 0,0.9654873 -0.7702792,1.7489676 -1.7202977,1.7489676 C 3.7702792,9.7546305 3,8.9711502 3,8.0056629 3,7.0401772 3.7702792,6.2581624 4.7202957,6.2581624 Z"
     id="path3375"
     inkscape:connector-curvature="0" />
</svg>

<svg version="1.1" viewBox="0 0 16 16" xmlns="http://www.w3.org/2000/svg">
<defs>
<style id="current-color-scheme" type="text/css">.ColorScheme-Text {
        color:#bebebe;
      }</style>
</defs>
<path class="ColorScheme-Text" d="m6.6666 2c0.26749 0 0.5343 0.10351 0.7385 0.31054l5.2919 4.8719c0.22059 0.22426 0.31908 0.52418 0.30087 0.81736 0.01819 0.2937-0.08019 0.59161-0.30087 0.81589l-5.2919 4.8734c-0.40841 0.41457-1.07 0.41457-1.4784 0-0.40842-0.41456-0.40842-1.0869 0-1.5014l4.5491-4.1879-4.5491-4.1893c-0.40842-0.41457-0.40842-1.0859 0-1.5 0.20421-0.20703 0.47246-0.31054 0.73994-0.31054zm-1.9463 4.2582c0.95002 0 1.7203 0.78201 1.7203 1.7475 0 0.96549-0.77028 1.749-1.7203 1.749-0.95002 0-1.7203-0.78348-1.7203-1.749 0-0.96549 0.77028-1.7475 1.7203-1.7475z" color="#bebebe" fill="currentColor"/>
</svg>
